X:36
T:Reel Eugene
M:2/2
L:1/8
K:Bm
"Bm"B2 Bc dc B2|"Em"e2 ef gece|"F#7"f2 fg fece|"Bm"f b2 f bfdc|
"Bm"B2 Bc dc B2|"Em"e2 ef gece|"F#7"f2 fg fedc|1"Bm"B2 FD B2 z2:|2"Bm"B4
"A"A4||:
"D"f2 fe d2 dB|AAdf b2 f2|"Em"a3 g "A7"e2 (3efe)|Aceg "D"fdAd|
"D"f2 fe d2 dB|AAdf b2 f2|"Em"a3 g "A7"e2 ce|1"D"dfec d2 de:|2"D"dfec d2
c2||
